Origami/32x32/apps/armagetronad.svg

<svg width="32" height="32" version="1.1" viewBox="0 0 32 32" xmlns="http://www.w3.org/2000/svg">
 <path d="M 16,3 A 14,14 0 0 0 2,17 14,14 0 0 0 16,31 14,14 0 0 0 30,17 14,14 0 0 0 16,3 Z" style="opacity:.2"/>
 <path d="M 16,2 A 14,14 0 0 0 2,16 14,14 0 0 0 16,30 14,14 0 0 0 30,16 14,14 0 0 0 16,2 Z" style="fill:#e3ac33"/>
 <path d="m16.256697 6.0125001c-0.09621 0.2866886-0.185891 0.5383157-0.291576 0.8872821-0.350252 1.1565172-0.683267 2.5779836-0.679411 3.3831118 0.0036 0.768901 0.337354 2.134023 0.684992 3.243599 0.08912 0.2844 0.135226 0.394793 0.21066 0.616634 0.102639-0.207592 0.148892-0.32055 0.281812-0.57478 0.564528-1.079777 1.270953-2.32505 2.060555-3.122228 0.815077-0.8229302 2.098376-1.5688108 3.21291-2.1651913 0.14189-0.075925 0.233678-0.1159035 0.368305-0.1855475a10.000056 10.000056 0 0 0 -5.848247 -2.0828801zm-1.530422 0.080915a10.000056 10.000056 0 0 0 -5.6082893 2.6576603c0.1336452 0.2676293 0.2478201 0.5046256 0.4185296 0.8231074 0.5686447 1.0608872 1.3334167 2.3005462 1.9196517 2.8920362 0.581891 0.587099 1.865333 1.397649 2.968768 2.004754 0.168785 0.09286 0.284936 0.147943 0.438061 0.228798-0.08786-0.255463-0.149593-0.409027-0.255302-0.746379-0.364335-1.162699-0.745206-2.542896-0.750564-3.664919-0.0055-1.1582456 0.374408-2.5932378 0.740797-3.8030347 0.04664-0.154068 0.08237-0.2475363 0.128348-0.3920232zm8.521254 3.0231755c-0.271745 0.1351516-0.513857 0.2511664-0.83706 0.4241095-1.065447 0.5701149-2.305921 1.3392469-2.872503 1.9112849-0.541089 0.546303-1.270671 1.747232-1.809443 2.777637-0.137638 0.263262-0.182699 0.373457-0.285993 0.583152 0.212475-0.07164 0.355694-0.127249 0.604078-0.20508 1.162698-0.364335 2.542896-0.745206 3.664919-0.750564 1.158246-0.0055 2.593236 0.374409 3.803033 0.740797 0.154068 0.04664 0.247537 0.08237 0.392025 0.128351a10.000056 10.000056 0 0 0 -2.659056 -5.6096874zm-15.152149 0.7784642a10.000056 10.000056 0 0 0 -2.0828801 5.8468522c0.282715 0.09432 0.5292415 0.180659 0.8733305 0.2846 1.1522522 0.348066 2.5698623 0.684069 3.4026426 0.687783 0.8266 0.0036 2.307503-0.331243 3.51704-0.682202 0.129285-0.03752 0.209559-0.0669 0.329241-0.103237-0.140848-0.0746-0.243508-0.12246-0.396206-0.206475-1.149339-0.632364-2.470808-1.41711-3.296615-2.25029-0.8214507-0.828801-1.5719157-2.113239-2.1665853-3.222676-0.0734407-0.137014-0.1124778-0.224222-0.1799677-0.3543552zm13.621726 5.3906552c-0.768901 0.0036-2.134023 0.337355-3.243599 0.684993-0.259892 0.08145-0.400742 0.136585-0.615239 0.209265 0.201304 0.09979 0.34216 0.162315 0.573385 0.283206 1.079777 0.564528 2.32505 1.270957 3.122228 2.060557 0.82293 0.815076 1.568811 2.098376 2.165191 3.212908 0.07593 0.141892 0.115904 0.233678 0.185546 0.368306a10.000056 10.000056 0 0 0 2.082882 -5.848248c-0.286689-0.096212-0.538316-0.185888-0.887282-0.291575-1.156518-0.350252-2.577984-0.683268-3.383112-0.679412zm-7.085698 1.98383c-0.15252 0.04693-0.259293 0.08531-0.426899 0.133928-1.259853 0.365557-2.748535 0.744616-3.921616 0.739402-1.1669045-0.0051-2.6064202-0.383775-3.8114063-0.747774-0.1490115-0.04503-0.2381606-0.07983-0.3780713-0.124161a10.000056 10.000056 0 0 0 2.6576599 5.611079c0.2676292-0.133645 0.5046256-0.247818 0.8231073-0.418528 1.0608864-0.568646 2.3005454-1.333418 2.8920364-1.919653 0.587098-0.581892 1.397649-1.865333 2.004753-2.968768 0.06485-0.117868 0.102872-0.197406 0.160436-0.305525zm2.679983 0.23298c0.03221 0.106144 0.05868 0.177928 0.09207 0.292971 0.365557 1.259853 0.744617 2.748535 0.739402 3.921616-0.0051 1.166904-0.383777 2.606421-0.747773 3.811406-0.04503 0.149011-0.07984 0.23816-0.124163 0.378073a10.000056 10.000056 0 0 0 5.612476 -2.659056c-0.135151-0.271743-0.251164-0.513856-0.424108-0.837059-0.570115-1.065446-1.339246-2.305922-1.911284-2.872505-0.546303-0.541089-1.747233-1.270669-2.777637-1.80944-0.189868-0.099277-0.292671-0.142906-0.458987-0.226006zm-1.38254 0.362726c-0.07285 0.138005-0.122477 0.243535-0.206476 0.396206-0.632363 1.149339-1.417108 2.470807-2.25029 3.296615-0.828802 0.821452-2.113238 1.571917-3.222676 2.166587-0.137013 0.07345-0.224222 0.112478-0.3543536 0.179967a10.000056 10.000056 0 0 0 5.8468516 2.082879c0.09432-0.282714 0.180658-0.529242 0.284599-0.87333 0.348067-1.152254 0.684068-2.569861 0.687784-3.402643 0.0036-0.8266-0.331244-2.307503-0.682203-3.51704-0.03752-0.129285-0.06748-0.212014-0.103236-0.329241z" style="fill:#383838"/>
 <circle cx="16" cy="17" r="4" style="opacity:.2"/>
 <circle cx="16" cy="16" r="4" style="fill:#cccccc"/>
 <path d="M 16 2 A 14 14 0 0 0 2 16 A 14 14 0 0 0 2.0214844 16.414062 A 14 14 0 0 1 16 3 A 14 14 0 0 1 29.978516 16.585938 A 14 14 0 0 0 30 16 A 14 14 0 0 0 16 2 z" style="fill:#ffffff;opacity:.2"/>
</svg>

<svg xmlns="http://www.w3.org/2000/svg" width="32" height="32" version="1.1" viewBox="0 0 32 32">
 <path style="opacity:0.2" d="M 16,3 A 14,14 0 0 0 2,17 14,14 0 0 0 16,31 14,14 0 0 0 30,17 14,14 0 0 0 16,3 Z"/>
 <path style="fill:#e3ac33" d="M 16,2 A 14,14 0 0 0 2,16 14,14 0 0 0 16,30 14,14 0 0 0 30,16 14,14 0 0 0 16,2 Z"/>
 <path style="fill:#383838" d="m 16.256697,6.0125001 c -0.09621,0.2866886 -0.185891,0.5383157 -0.291576,0.8872821 -0.350252,1.1565172 -0.683267,2.5779836 -0.679411,3.3831118 0.0036,0.768901 0.337354,2.134023 0.684992,3.243599 0.08912,0.2844 0.135226,0.394793 0.21066,0.616634 0.102639,-0.207592 0.148892,-0.32055 0.281812,-0.57478 0.564528,-1.079777 1.270953,-2.32505 2.060555,-3.122228 0.815077,-0.8229302 2.098376,-1.5688108 3.21291,-2.1651913 0.14189,-0.075925 0.233678,-0.1159035 0.368305,-0.1855475 A 10.000056,10.000056 0 0 0 16.256697,6.0125001 Z m -1.530422,0.080915 A 10.000056,10.000056 0 0 0 9.1179857,8.7510754 C 9.2516309,9.0187047 9.3658058,9.255701 9.5365153,9.5741828 10.10516,10.63507 10.869932,11.874729 11.456167,12.466219 c 0.581891,0.587099 1.865333,1.397649 2.968768,2.004754 0.168785,0.09286 0.284936,0.147943 0.438061,0.228798 -0.08786,-0.255463 -0.149593,-0.409027 -0.255302,-0.746379 -0.364335,-1.162699 -0.745206,-2.542896 -0.750564,-3.664919 -0.0055,-1.1582456 0.374408,-2.5932378 0.740797,-3.8030347 0.04664,-0.154068 0.08237,-0.2475363 0.128348,-0.3920232 z m 8.521254,3.0231755 c -0.271745,0.1351516 -0.513857,0.2511664 -0.83706,0.4241095 -1.065447,0.5701149 -2.305921,1.3392469 -2.872503,1.9112849 -0.541089,0.546303 -1.270671,1.747232 -1.809443,2.777637 -0.137638,0.263262 -0.182699,0.373457 -0.285993,0.583152 0.212475,-0.07164 0.355694,-0.127249 0.604078,-0.20508 1.162698,-0.364335 2.542896,-0.745206 3.664919,-0.750564 1.158246,-0.0055 2.593236,0.374409 3.803033,0.740797 0.154068,0.04664 0.247537,0.08237 0.392025,0.128351 A 10.000056,10.000056 0 0 0 23.247529,9.1165906 Z M 8.09538,9.8950548 A 10.000056,10.000056 0 0 0 6.0124999,15.741907 c 0.282715,0.09432 0.5292415,0.180659 0.8733305,0.2846 1.1522522,0.348066 2.5698623,0.684069 3.4026426,0.687783 0.8266,0.0036 2.307503,-0.331243 3.51704,-0.682202 0.129285,-0.03752 0.209559,-0.0669 0.329241,-0.103237 -0.140848,-0.0746 -0.243508,-0.12246 -0.396206,-0.206475 -1.149339,-0.632364 -2.470808,-1.41711 -3.296615,-2.25029 C 9.6204823,12.643285 8.8700173,11.358847 8.2753477,10.24941 8.201907,10.112396 8.1628699,10.025188 8.09538,9.8950548 Z M 21.717106,15.28571 c -0.768901,0.0036 -2.134023,0.337355 -3.243599,0.684993 -0.259892,0.08145 -0.400742,0.136585 -0.615239,0.209265 0.201304,0.09979 0.34216,0.162315 0.573385,0.283206 1.079777,0.564528 2.32505,1.270957 3.122228,2.060557 0.82293,0.815076 1.568811,2.098376 2.165191,3.212908 0.07593,0.141892 0.115904,0.233678 0.185546,0.368306 A 10.000056,10.000056 0 0 0 25.9875,16.256697 C 25.700811,16.160485 25.449184,16.070809 25.100218,15.965122 23.9437,15.61487 22.522234,15.281854 21.717106,15.28571 Z m -7.085698,1.98383 c -0.15252,0.04693 -0.259293,0.08531 -0.426899,0.133928 -1.259853,0.365557 -2.748535,0.744616 -3.921616,0.739402 C 9.1159885,18.13777 7.6764728,17.759095 6.4714867,17.395096 6.3224752,17.350066 6.2333261,17.315266 6.0934154,17.270935 a 10.000056,10.000056 0 0 0 2.6576599,5.611079 c 0.2676292,-0.133645 0.5046256,-0.247818 0.8231073,-0.418528 1.0608864,-0.568646 2.3005454,-1.333418 2.8920364,-1.919653 0.587098,-0.581892 1.397649,-1.865333 2.004753,-2.968768 0.06485,-0.117868 0.102872,-0.197406 0.160436,-0.305525 z m 2.679983,0.23298 c 0.03221,0.106144 0.05868,0.177928 0.09207,0.292971 0.365557,1.259853 0.744617,2.748535 0.739402,3.921616 -0.0051,1.166904 -0.383777,2.606421 -0.747773,3.811406 -0.04503,0.149011 -0.07984,0.23816 -0.124163,0.378073 A 10.000056,10.000056 0 0 0 22.883403,23.24753 C 22.748252,22.975787 22.632239,22.733674 22.459295,22.410471 21.88918,21.345025 21.120049,20.104549 20.548011,19.537966 20.001708,18.996877 18.800778,18.267297 17.770374,17.728526 17.580506,17.629249 17.477703,17.58562 17.311387,17.50252 Z m -1.38254,0.362726 c -0.07285,0.138005 -0.122477,0.243535 -0.206476,0.396206 -0.632363,1.149339 -1.417108,2.470807 -2.25029,3.296615 -0.828802,0.821452 -2.113238,1.571917 -3.222676,2.166587 -0.137013,0.07345 -0.224222,0.112478 -0.3543536,0.179967 A 10.000056,10.000056 0 0 0 15.741907,25.9875 c 0.09432,-0.282714 0.180658,-0.529242 0.284599,-0.87333 0.348067,-1.152254 0.684068,-2.569861 0.687784,-3.402643 0.0036,-0.8266 -0.331244,-2.307503 -0.682203,-3.51704 -0.03752,-0.129285 -0.06748,-0.212014 -0.103236,-0.329241 z"/>
 <circle style="opacity:0.2" cx="16" cy="17" r="4"/>
 <circle style="fill:#cccccc" cx="16" cy="16" r="4"/>
 <path style="fill:#ffffff;opacity:0.2" d="M 16 2 A 14 14 0 0 0 2 16 A 14 14 0 0 0 2.0214844 16.414062 A 14 14 0 0 1 16 3 A 14 14 0 0 1 29.978516 16.585938 A 14 14 0 0 0 30 16 A 14 14 0 0 0 16 2 z"/>
</svg>
